source/bluetooth.svg

<svg width="24" height="24" viewBox="0 0 24 24" fill="none" xmlns="http://www.w3.org/2000/svg">
<path d="M6.51786 5.95748C6.21823 5.67148 5.74349 5.68252 5.45748 5.98214C5.17148 6.28177 5.18252 6.75651 5.48214 7.04252L6.51786 5.95748ZM17 17L17.5045 17.555C17.6585 17.4149 17.7474 17.2172 17.7499 17.0091C17.7525 16.801 17.6684 16.6012 17.5179 16.4575L17 17ZM11.5 22H10.75C10.75 22.2969 10.9251 22.5658 11.1966 22.6859C11.4681 22.806 11.7848 22.7546 12.0045 22.555L11.5 22ZM11.5 2L12.0045 1.44504C11.7848 1.24535 11.4681 1.19402 11.1966 1.31411C10.9251 1.43421 10.75 1.70314 10.75 2H11.5ZM17 7L17.5179 7.54252C17.6684 7.39881 17.7525 7.19899 17.7499 6.99088C17.7474 6.78276 17.6585 6.58505 17.5045 6.44504L17 7ZM5.48214 16.9575C5.18252 17.2435 5.17148 17.7182 5.45748 18.0179C5.74349 18.3175 6.21823 18.3285 6.51786 18.0425L5.48214 16.9575ZM5.48214 7.04252L16.4821 17.5425L17.5179 16.4575L6.51786 5.95748L5.48214 7.04252ZM16.4955 16.445L10.9955 21.445L12.0045 22.555L17.5045 17.555L16.4955 16.445ZM12.25 22V2H10.75V22H12.25ZM10.9955 2.55496L16.4955 7.55496L17.5045 6.44504L12.0045 1.44504L10.9955 2.55496ZM16.4821 6.45748L5.48214 16.9575L6.51786 18.0425L17.5179 7.54252L16.4821 6.45748Z" fill="#1C1B1F"/>
</svg>

<svg xmlns="http://www.w3.org/2000/svg" width="24" height="24" fill="none" viewBox="0 0 24 24">
  <path fill="#1C1B1F" d="M6.518 5.957a.75.75 0 0 0-1.036 1.086l1.036-1.086ZM17 17l.505.555a.75.75 0 0 0 .013-1.098L17 17Zm-5.5 5h-.75a.75.75 0 0 0 1.255.555L11.5 22Zm0-20 .505-.555A.75.75 0 0 0 10.75 2h.75ZM17 7l.518.543a.75.75 0 0 0-.014-1.098L17 7ZM5.482 16.957a.75.75 0 0 0 1.036 1.085l-1.036-1.085Zm0-9.914 11 10.5 1.036-1.085-11-10.5-1.036 1.085Zm11.013 9.402-5.5 5 1.01 1.11 5.5-5-1.01-1.11ZM12.25 22V2h-1.5v20h1.5ZM10.995 2.555l5.5 5 1.01-1.11-5.5-5-1.01 1.11Zm5.487 3.902-11 10.5 1.036 1.085 11-10.5-1.036-1.085Z"/>
</svg>
